fa/school.svg

<svg xmlns="http://www.w3.org/2000/svg" viewBox="0 0 640 512" height="1em" width="1em">
  <path d="M320 128c8.8 0 16 7.2 16 16v16h16c8.8 0 16 7.2 16 16s-7.2 16-16 16h-32c-8.8 0-16-7.2-16-16v-32c0-8.8 7.2-16 16-16zm156.8-29.94 125.6 27.04c22 5.8 37.6 25.2 37.6 47.7V464c0 26.5-21.5 48-48 48H48c-26.51 0-48-21.5-48-48V172.8c0-22.5 15.63-41.9 37.59-47.7L163.2 98.06l139-92.686c9.9-7.165 24.8-7.165 35.6 0l139 92.686zM256 512h128v-96c0-35.3-28.7-64-64-64s-64 28.7-64 64v96zM96 192c-8.84 0-16 7.2-16 16v64c0 8.8 7.16 16 16 16h32c8.8 0 16-7.2 16-16v-64c0-8.8-7.2-16-16-16H96zm400 80c0 8.8 7.2 16 16 16h32c8.8 0 16-7.2 16-16v-64c0-8.8-7.2-16-16-16h-32c-8.8 0-16 7.2-16 16v64zM96 320c-8.84 0-16 7.2-16 16v64c0 8.8 7.16 16 16 16h32c8.8 0 16-7.2 16-16v-64c0-8.8-7.2-16-16-16H96zm400 80c0 8.8 7.2 16 16 16h32c8.8 0 16-7.2 16-16v-64c0-8.8-7.2-16-16-16h-32c-8.8 0-16 7.2-16 16v64zM320 88c-48.6 0-88 39.4-88 88s39.4 88 88 88 88-39.4 88-88-39.4-88-88-88z"/>
</svg>

<svg xmlns="http://www.w3.org/2000/svg" viewBox="0 0 640 512" height="1em" width="1em">
  <path d="M320 128C328.8 128 336 135.2 336 144V160H352C360.8 160 368 167.2 368 176C368 184.8 360.8 192 352 192H320C311.2 192 304 184.8 304 176V144C304 135.2 311.2 128 320 128zM476.8 98.06L602.4 125.1C624.4 130.9 640 150.3 640 172.8V464C640 490.5 618.5 512 592 512H48C21.49 512 0 490.5 0 464V172.8C0 150.3 15.63 130.9 37.59 125.1L163.2 98.06L302.2 5.374C312.1-1.791 327-1.791 337.8 5.374L476.8 98.06zM256 512H384V416C384 380.7 355.3 352 320 352C284.7 352 256 380.7 256 416V512zM96 192C87.16 192 80 199.2 80 208V272C80 280.8 87.16 288 96 288H128C136.8 288 144 280.8 144 272V208C144 199.2 136.8 192 128 192H96zM496 272C496 280.8 503.2 288 512 288H544C552.8 288 560 280.8 560 272V208C560 199.2 552.8 192 544 192H512C503.2 192 496 199.2 496 208V272zM96 320C87.16 320 80 327.2 80 336V400C80 408.8 87.16 416 96 416H128C136.8 416 144 408.8 144 400V336C144 327.2 136.8 320 128 320H96zM496 400C496 408.8 503.2 416 512 416H544C552.8 416 560 408.8 560 400V336C560 327.2 552.8 320 544 320H512C503.2 320 496 327.2 496 336V400zM320 88C271.4 88 232 127.4 232 176C232 224.6 271.4 264 320 264C368.6 264 408 224.6 408 176C408 127.4 368.6 88 320 88z"/>
</svg>
